X:841
T:British Grenadiers
S:Bruce & Emmett's Drummers and Fifers Guide (1862), p. 84
M:2/4
L:1/16
Q:1/4=100
K:D
%%MIDI program 72
%%MIDI transpose 8
%%MIDI ratio 3 1
(3(ABc)|d2A2 d2ef|g2f2 e2fg|a2f2d2f2|edcB A2Bc|d2A2 d2ef|
g2f2 e2fg|a2d2 fedc|d4 z2::A2|A3B A2G2|F2G2 A3A|
B2B2 gfec|(d4 c2) (3(ABc)|d2cd e2de|f2ef g2fg|a2d2 fedc|d4 z2:|
